elements/app-hax/lib/rpg-character-toast/images/SpeechBubbleMiddle.svg

<svg xmlns="http://www.w3.org/2000/svg" fill="none" width="20" height="142" viewBox="120 0 20 142"><path d="M194 15v3h-93v-3h93Zm-93 113h93v3h-93v-3Z" fill="#000"/></svg>

<svg width="20" height="142" viewBox="120 0 20 142" fill="none" xmlns="http://www.w3.org/2000/svg">
<path d="M194 15V18H101V15H194Z" fill="black"/>
<path d="M101 128H194V131H101V128Z" fill="black"/>
</svg>
